X:192
T:Way Down Yonder in New Orleans
C:Merle Travis
N:TablEdited by steve roberts edited by m. joyce
L:1/8
Q:1/4=200
M:4/4
K:C
zG, DF Bd a2 | [g2G,2] [g2A2F2] [gG,]e [g2A2F2] | [eG,]e [AF]e G,2 [A2F2] | G,d [GE]B [dG,]B [d2G2E2] | 
[BG,]B [GE]B G,2 [G2E2] | G,2 [G2F2] [AG,]B [AF]g | G,2 [g2A2F2] G,2 [A2F2] | 
[gG,]d [g2B2F2] [^gG,]a Fc | G,2 G2 G,2 [c2G2] | [gG,]g [A2F2] [gG,]e [g2A2F2] | 
[eG,]e [AF]e G,2 [A2F2] | G,d [GE]B [dG,]B [d2G2E2] | [BG,]B [GE]B G,A E2 | [_B2G,2] E2 G,c [d2G2E2] | 
[g2G,2] [e2G2E2] [dG,]c [GE]d | F,2 [A2F2] F,e [fAF]d | F,2 F2 C2 ^C2 | [d2D2] A2 A,e [^f2d2A2] | 
[a2A,2] [^f2d2A2] [eA,]d A2 | [g2G,2] [B2G2] E[bg] [d2B2] | [g2G,2] G,2 A,2 B,2 | 
G,g [G2E2] [gG,]e [g2G2E2] | [aA,]^d [c^F]a A,2 [c2F2] | [gG,][ge] [c2G2] [gG,]e [c2G2] | 
[^g2^G,2] [c2^G2] G,2 [c2G2] | [gG,]g [c2G2] [gG,]e [g2c2G2] | [e2^F,2] [A2^F2] [e2G,2] [A2=F2] | 
[cG,]G EA F,B [A2F2] | [cG,]G Ec G,2 [G2E2] | 
K:Bb
F2 F2 FD F2 | DD2D z4 | zC2A, CA, C2 | A,A,2A, z4 | F,4 A,C DF | zF7/1 | zF FF G4 | 
D8 | zF2D FD F2 | DD2D z4 | zC2A, CA, C2 | A,A,2A, z4 | [_a6c6] [g2B2] | [f2_A2] [d2F2] [e2G2] [f2A2] | 
[e6G6] [e2G2] | [e2G2] F2 [d4=B4] | [c4=E4] [=e2G2] [g2B2] | [a2=e2] [dB][ae] z4 | 
[F8F,8] | F2 F,2 G,2 A,2 | z2 FD FD F2 | GG2G z4 | z2 FD FD F2 | _G8 | B2 A2 GF3 | 
=EG B2 AF A2 | B2 D2 F4 | (3FGA B6 | 
K:A
E,2 [eGD]e [eE,]f [e2G2D2] | [gE,]d [GD]f E,e [GD]=c | [cA,]a [c2A2E2] [=gE,]a [A2E2] | 
[a2A,2] [fAE]e E,a [A2E2] | (3CAe (3=CA^d (3B,=G=d (3CA^d | (3CAe (3=CA^d (3B,=G=d (3CA^d | 
(3G,EB (3F,EB (3E,EB (3F,EB | (3A,EA (3E,EA (3F,EA G,2 | [e2E,2] [g2G2D2] [eE,]g [eGD]g | 
[eE,]g [eGD]g [eE,]g [e2G2D2] | [a2A,2] [g2A2E2] [fE,]c [AE]e | A,c [AE]e E,2 [A2E2] | 
(3dE=G (3cEG (3dEG (3cEG | (3dE=G (3cEG (3BEG (3AEG | D2 [a2d2A2] [b2A,2] [d2A2] | 
[aA,]f [dA]a A,2 F,2 | B,2 [b2^d2B2] [a2B,2] [f2d2B2] | [bB,]a [^dB]b B,2 [d2B2] | 
B,2 [e2G2] B,d G2 | [eE,]=c Ge E,2 [c2G2] | [e2A,2] [e2A2E2] [eE,]c [e2A2E2] | 
[fF,]=c [A^D]f F,2 [A2D2] | [aA,]g [A2E2] [fE,]e [A2E2] | =F,=F [c6G6] | [e2A,2] [c2A2E2] [eE,]f [A2E2] | 
F,A cA E,G B2 | A,A cA F,2 G,2 | A,2 [AE]c z4 | 
K:C
[g2G,2] [g2A2F2] [gG,]e [g2A2F2] | [eG,]e [AF]e G,2 [A2F2] | G,d [GE]B [dG,]B [d2G2E2] | 
[BG,]B [GE]B G,2 [G2E2] | [d'4g4f4B4] [c'4f4d4G4] | [b4f4d4G4] [_b4^d4c4^F4] | 
[a2d2B2F2] G,2 A,2 B,2 | [e2C2] [GE]e G,2 [G2E2] | [g2G,2] [g2A2F2] [gG,]e [g2A2F2] | 
[eG,]e [AF]e G,2 [A2F2] | G,d [G2E2] [dG,]B [d2G2E2] | [BG,]B [GE]B G,2 [G2E2] | 
[_B2E2C2G,2] z2 zc de | g2 e2 d2 c2 | [d2F,2] [A2F2] F,e [fF]A | F,2 [A2F2] F,2 [A2F2] | 
[d2c2^F2A,2] z2 zd e^f | a2 ^f2 e2 d2 | [gG,]B Gg G,B Gg | G,2 [B2G2] G,B G2 | 
[gG,]g [G2E2] [gG,]e [g2G2E2] | [aA,]^d [c^F]a A,2 [c2F2] | [gG,]g [G2E2] [gG,]e [g2G2E2] | 
[^g2^G,2] [c2^G2] G,2 [c2G2] | [g2G,2] [a2c2G2] [gG,]e [c2G2] | [e4c4A4^F4C4] [e4B4A4=F4] | 
[c2G2E2C2] (3E,F,^F, G,2 (3A,_B,=B, | [c2G2E2C2] G,2 [c4G4E4C4] | 


